X:1
T:Lord Randal
M:3/4
L:1/4
K:G
 D A2| F
M:3/4
| G/2 A3/2 D| D/2 G3/2 E|
M:2/4
 D2|
M:4/4
 D A2| F|
M:3/4
 G/2 A3/2 c| B/2- G3/2 B| A2 G| A/2- d3/2B/2-A/2| c/2 A3/2A/2-G/2|\
 F/2 D3/2 E| D2 z| D/2 G E/2- F/4 F/4- G/2| A2A/2-G/2| F/2 D3/2 E|\
 D2 z|
